X:0382
T:The Sows Tail to Geordie.
N:Aird uses a da capo but gives no "Fine"
N:Aird's variants are |f2d2| and |f2d|
N:there is no initial-repeat sign after the e upbeat to the second half
M:2/4
L:1/8
Q:1/4=100
I: :: (1) || (2) || :: :| DC
P:ABA
Z:Jack Campin * www.campin.me.uk * 2009
K:D
P:A
   A>BAF            |EFGE             |A>BAF            | ABde     |
   fg       f/g/a/z/|EFGE             |D/E/F/G/ AE      |TF2    D2:|
   a>baf            |efge             |a>baf            | defd     |
   ga/g/    fg/f/   |ef/d/    d/c/B/A/|d/e/f/g/ a/g/f/e/|Tf2 [1 d2:|\
                                                             [2 d ||
P:B
e|:d>BAF            |EFGE             |d>BAF            | A>Bde    |
   e/d/c/B/ B/A/G/F/|EFGE             |D/E/F/G/ AE      |TF2    D2:|
   a>fdf            |ef       a/g/f/e/|a>fdf            | a>baf    |
   gb/g/    fa/f/   |g/f/e/d/ c/d/e/c/|d/e/f/g/ ae      |Tf2    d2:|
<end>
<start>
